X: 29993
T: Ode To Joy
R: barndance
M: 4/4
K: Dmajor
"D"[f2d2] f2 "G"g2 a2|"A"a3 gf2 e2|"D"d2 d2 e2 f2|f3 e"A"e4|
"D"[f2d2] f2 "G"g2 a2|"A"a3 gf2 e2|"D"d2 d2 "A"e2 f2|e3 d "D"d4|
"A"e2 e2 "D"f2 d2|"A"e2 fg "D"f2 d2|"A"e2 fg"D" f2 e2|d2 e2 "A"A4|
"D"f2 f2 "G"g2 a2|"A"a3 gf2 e2|"D"d2 d2 "A"e2 f2|e3 d"D"d4||

